file/maserati.svg

<svg clip-rule="evenodd" fill-rule="evenodd" stroke-linejoin="round" stroke-miterlimit="1.41421" viewBox="0 0 560 400" xmlns="http://www.w3.org/2000/svg"><g fill="#002245" fill-rule="nonzero" transform="matrix(.962567 0 0 .962567 87.4866 55.6155)"><path d="m191.671 148.455h16.663v4.118h-16.663zm2.057 5.761h12.648v8.539h-12.648zm-18.515-24.894h49.682v2.058h-49.682zm-2.677 3.911h54.928v2.056h-54.928zm-.103-7.714h54.928v2.056h-54.928zm36.207 14.192c-2.774 2.47-2.774 6.995-2.774 6.995h-5.969-5.861s0-4.525-2.779-6.995c-1.95-1.748-4.32-2.16-4.32-2.16-1.541-.307-1.541-.515-1.541-.617h28.902s0 .31-1.541.617c.204.105-2.161.412-4.117 2.16zm-33.222-2.674h5.964c0 3.499-2.263 5.145-5.964 4.321zm21.085-56.983c2.365-4.732 2.882-11.726 3.497-11.83.619.104 1.029 7.2 3.395 11.83 2.263 4.423 7.101 8.229 6.793 8.641-.313.515-2.984-.824-4.32-1.441-2.16-1.029-3.911-1.748-3.911-1.748s-.824 11.211 1.854 21.6c2.263 8.434 7.61 16.253 8.124 16.87h-6.892l-.619-1.029c-1.849-3.292-3.188-6.069-4.423-11.006-1.336 4.835-2.672 7.714-4.524 11.006l-.616 1.028h-6.896c.518-.722 5.866-8.436 8.13-16.87 2.774-10.389 1.849-21.6 1.849-21.6s-1.746.822-3.906 1.748c-1.336.617-4.013 1.956-4.321 1.441-.207-.412 4.626-4.217 6.786-8.64zm-21.29 43.921c0-.824-.517-12.242-3.086-21.19-2.882-9.772-8.846-15.634-8.436-16.251.414-.515 5.247.41 8.846 2.982 3.911 2.675 7.714 7.098 7.407 7.407-.205.205-1.439-.926-3.911-1.75-2.468-.924-3.599-.719-3.599-.719s4.218 6.893 6.275 14.4c1.746 6.276 2.672 14.4 2.672 15.122zm49.578 0c0-.824.41-12.242 3.087-21.19 2.878-9.772 8.847-15.634 8.433-16.251-.309-.515-5.247.41-8.847 2.982-3.905 2.675-7.715 7.098-7.406 7.407.209.205 1.442-.926 3.809-1.75 2.569-.924 3.599-.719 3.599-.719s-4.218 6.893-6.271 14.4c-1.75 6.276-2.677 14.4-2.677 15.122zm-.204 13.062h-5.969c0 3.499 2.263 5.145 5.969 4.321z"/><path d="m288.048 198.139-5.241 13.473h10.08zm-8.124 20.773c-.823 1.959-1.75 4.529-1.75 6.582 0 2.059 1.955 2.473 3.496 2.779l2.473.205v1.955h-15.326v-1.85c3.087-.619 4.32-1.34 5.656-4.113.409-.824.823-1.855 1.233-3.088l1.028-2.57 9.771-24.688-.926-2.678h6.687l10.182 27.365 1.75 4.73c.41 1.029 1.029 3.082 1.956 3.91.717.717 1.848.922 4.218 1.025v1.955h-18.516v-1.955c3.292-.104 5.759-.205 5.759-2.365 0-1.234-.512-3.086-1.233-4.627l-.927-2.674-1.541-4.525h-12.347zm-40.425-24.48c-1.337 0-2.774.205-3.6.205v17.594h3.702c1.853 0 3.603-.205 5.349-1.033 1.956-1.023 3.6-3.184 3.6-7.607 0-7.202-5.244-9.159-9.051-9.159zm-3.6 24.48v3.809c0 4.938.513 5.865 4.014 5.865h2.774v1.951h-19.646v-1.951c5.759.205 6.173-1.342 6.173-4.734v-4.939-19.539c0-3.906-.618-3.906-6.173-4.219v-1.951c3.81-.414 8.847-.926 15.43-.926 2.983 0 16.975 0 16.975 11.002 0 4.426-2.058 7.201-5.866 9.049-.819.416-1.644.619-2.263.928.722.723 1.337 1.342 1.955 2.164.518.82 1.132 1.85 1.956 3.6l1.232 2.674c2.882 5.861 4.423 6.992 7.612 7.611v1.955c-5.555.203-9.978-1.854-13.576-7.406-.517-.719-1.647-2.775-2.779-4.834-1.028-1.955-2.159-3.805-2.569-4.525h-5.248zm-136.29-20.773-5.247 13.473h10.08zm-8.124 20.773c-.722 1.959-1.648 4.529-1.648 6.582 0 2.059 1.854 2.473 3.496 2.779l2.365.205v1.955h-15.219v-1.85c3.185-.619 4.319-1.34 5.655-4.113l1.234-3.088 1.029-2.57 9.875-24.688-.927-2.678h6.686l10.182 27.365 1.75 4.73c.41 1.029 1.029 3.082 1.956 3.91.819.717 1.849.922 4.32 1.025v1.955h-18.72v-1.955c3.185-.104 5.759-.205 5.759-2.365 0-1.234-.619-3.086-1.234-4.627l-.926-2.674-1.647-4.525h-12.24zm288.829 0v4.018c0 4.623 1.232 5.346 6.686 5.656v1.951h-19.438v-1.951c4.628-.313 4.729-.414 5.242-1.342.927-1.438.927-6.064.927-7.918v-19.029c0-4.627-.927-5.246-6.48-5.66v-1.949h19.441v1.949c-6.378.211-6.48 1.133-6.48 7.412v16.863zm-42.068 0v4.426c0 2.57.204 3.701 1.131 4.32.514.309 1.131.514 2.059.615.927.105 2.16.205 3.804.205v1.955h-20.881v-1.955c1.854-.104 3.087-.205 4.014-.205.927-.205 1.645-.309 2.059-.615.823-.516 1.028-1.646 1.028-3.91v-4.836-23.76h-6.275c-2.469 0-3.496.205-4.115.615-.513.313-.819.723-1.132 1.545-.308.824-.614 2.059-1.336 4.219h-1.854l.823-9.977h1.546c.615 1.027 1.132 1.131 2.16 1.232h25.714c2.774 0 3.086-.205 3.496-1.232h1.541l.927 9.977h-1.951c-1.341-6.275-2.573-6.379-5.764-6.379h-6.992zm-149.867 0v5.66c0 3.496.205 3.496 3.701 3.496h6.583c3.804 0 5.759-.615 7.408-7.197h2.058l-.927 9.461h-31.682v-1.955c5.656.209 6.07-1.338 6.07-4.73v-4.939-19.438c0-4.219-1.136-4.936-6.07-4.838v-1.744h30.034l.413 8.641h-1.955c-1.028-5.764-2.364-6.174-6.48-6.174h-9.255v15.02h9.153c3.086 0 3.905 0 4.422-4.633h2.058v11.83h-2.058c-.204-4.729-.823-4.936-5.042-4.936h-8.534v6.477h.103zm-29.009 0c.103.617.205 1.34.205 1.959 0 5.754-4.628 10.904-11.826 10.904-1.131 0-1.853-.107-2.882-.211-1.029-.205-2.365-.619-4.627-1.232-.41-.205-.722-.205-1.029-.205-.722 0-.927.205-.927.818h-1.853l-1.132-9.766h2.059c2.574 7.406 7.924 8.334 9.67 8.334 2.365 0 7.1-1.547 7.1-6.486 0-1.645-.517-2.984-1.442-4.213-1.541-2.059-4.32-3.707-8.124-6.07-7.714-4.73-9.153-8.229-9.153-11.621 0-5.656 5.14-9.771 10.387-9.771 2.059 0 3.911.307 5.555.926.512.205 2.263.928 2.569.928.209 0 .518-.211 1.029-.83h1.852l.928 9.057h-2.059c-1.853-4.832-4.833-7.816-9.051-7.816-3.292 0-5.763 2.467-5.763 5.246 0 1.746.517 2.877 2.058 4.32.824.717 1.955 1.645 3.395 2.564l5.451 3.605c1.75 1.131 3.395 2.262 4.735 3.809 1.333 1.64 2.465 3.487 2.875 5.751zm-136.184 0-.414 4.631c-.104.41-.104 1.648-.104 2.57 0 2.365 3.292 2.365 5.35 2.365v1.955h-15.018v-1.955c6.48-.309 6.48-.615 6.998-7.197l.205-2.469 1.645-20.266c.204-3.6-.41-3.6-5.35-3.91v-1.951h12.756l11.313 26.127.824 1.951.927-1.951 11.416-26.127h12.552v1.951c-1.545 0-2.472 0-3.292.105-.722.205-1.234.307-1.546.615-.614.619-.717 1.955-.512 4.836l1.233 18.717.205 3.398c.308 4.936.414 6.48 6.071 6.275v1.951h-18.412v-1.951c1.336-.105 3.292-.205 4.525-.619 1.028-.414 1.647-1.029 1.647-2.365 0-.518-.209-2.264-.209-2.779l-.205-3.803-1.233-20.574-9.052 20.574-5.042 11.625h-1.849l-4.939-11.625-8.742-20.574z"/></g></svg>

<?xml version="1.0" encoding="UTF-8" standalone="no"?>
<!DOCTYPE svg PUBLIC "-//W3C//DTD SVG 1.1//EN" "http://www.w3.org/Graphics/SVG/1.1/DTD/svg11.dtd">
<svg width="100%" height="100%" viewBox="0 0 560 400" version="1.1" xmlns="http://www.w3.org/2000/svg" xmlns:xlink="http://www.w3.org/1999/xlink" xml:space="preserve" xmlns:serif="http://www.serif.com/" style="fill-rule:evenodd;clip-rule:evenodd;stroke-linejoin:round;stroke-miterlimit:1.41421;">
    <g transform="matrix(0.962567,0,0,0.962567,87.4866,55.6155)">
        <path id="trident" d="M191.671,148.455L208.334,148.455L208.334,152.573L191.671,152.573L191.671,148.455ZM193.728,154.216L206.376,154.216L206.376,162.755L193.728,162.755L193.728,154.216ZM175.213,129.322L224.895,129.322L224.895,131.38L175.213,131.38L175.213,129.322ZM172.536,133.233L227.464,133.233L227.464,135.289L172.536,135.289L172.536,133.233ZM172.433,125.519L227.361,125.519L227.361,127.575L172.433,127.575L172.433,125.519ZM208.64,139.711C205.866,142.181 205.866,146.706 205.866,146.706L199.897,146.706L194.036,146.706C194.036,146.706 194.036,142.181 191.257,139.711C189.307,137.963 186.937,137.551 186.937,137.551C185.396,137.244 185.396,137.036 185.396,136.934L214.298,136.934C214.298,136.934 214.298,137.244 212.757,137.551C212.961,137.656 210.596,137.963 208.64,139.711ZM175.418,137.037L181.382,137.037C181.382,140.536 179.119,142.182 175.418,141.358L175.418,137.037ZM196.503,80.054C198.868,75.322 199.385,68.328 200,68.224C200.619,68.328 201.029,75.424 203.395,80.054C205.658,84.477 210.496,88.283 210.188,88.695C209.875,89.21 207.204,87.871 205.868,87.254C203.708,86.225 201.957,85.506 201.957,85.506C201.957,85.506 201.133,96.717 203.811,107.106C206.074,115.54 211.421,123.359 211.935,123.976L205.043,123.976L204.424,122.947C202.575,119.655 201.236,116.878 200.001,111.941C198.665,116.776 197.329,119.655 195.477,122.947L194.861,123.975L187.965,123.975C188.483,123.253 193.831,115.539 196.095,107.105C198.869,96.716 197.944,85.505 197.944,85.505C197.944,85.505 196.198,86.327 194.038,87.253C192.702,87.87 190.025,89.209 189.717,88.694C189.51,88.282 194.343,84.477 196.503,80.054ZM175.213,123.975C175.213,123.151 174.696,111.733 172.127,102.785C169.245,93.013 163.281,87.151 163.691,86.534C164.105,86.019 168.938,86.944 172.537,89.516C176.448,92.191 180.251,96.614 179.944,96.923C179.739,97.128 178.505,95.997 176.033,95.173C173.565,94.249 172.434,94.454 172.434,94.454C172.434,94.454 176.652,101.347 178.709,108.854C180.455,115.13 181.381,123.254 181.381,123.976L175.213,123.975ZM224.791,123.975C224.791,123.151 225.201,111.733 227.878,102.785C230.756,93.013 236.725,87.151 236.311,86.534C236.002,86.019 231.064,86.944 227.464,89.516C223.559,92.191 219.749,96.614 220.058,96.923C220.267,97.128 221.5,95.997 223.867,95.173C226.436,94.249 227.466,94.454 227.466,94.454C227.466,94.454 223.248,101.347 221.195,108.854C219.445,115.13 218.518,123.254 218.518,123.976L224.791,123.975ZM224.587,137.037L218.618,137.037C218.618,140.536 220.881,142.182 224.587,141.358L224.587,137.037Z" style="fill:rgb(0,34,69);fill-rule:nonzero;"/>
        <path id="maserati_1_" d="M288.048,198.139L282.807,211.612L292.887,211.612L288.048,198.139ZM279.924,218.912C279.101,220.871 278.174,223.441 278.174,225.494C278.174,227.553 280.129,227.967 281.67,228.273L284.143,228.478L284.143,230.433L268.817,230.433L268.817,228.583C271.904,227.964 273.137,227.243 274.473,224.47C274.882,223.646 275.296,222.615 275.706,221.382L276.734,218.812L286.505,194.124L285.579,191.446L292.266,191.446L302.448,218.811L304.198,223.541C304.608,224.57 305.227,226.623 306.154,227.451C306.871,228.168 308.002,228.373 310.372,228.476L310.372,230.431L291.856,230.431L291.856,228.476C295.148,228.372 297.615,228.271 297.615,226.111C297.615,224.877 297.103,223.025 296.382,221.484L295.455,218.81L293.914,214.285L281.567,214.285L279.924,218.912ZM239.499,194.432C238.162,194.432 236.725,194.637 235.899,194.637L235.899,212.231L239.601,212.231C241.454,212.231 243.204,212.026 244.95,211.198C246.906,210.175 248.55,208.014 248.55,203.591C248.55,196.389 243.306,194.432 239.499,194.432ZM235.899,218.912L235.899,222.721C235.899,227.659 236.412,228.586 239.913,228.586L242.687,228.586L242.687,230.537L223.041,230.537L223.041,228.586C228.8,228.791 229.214,227.244 229.214,223.852L229.214,218.913L229.214,199.374C229.214,195.468 228.596,195.468 223.041,195.155L223.041,193.204C226.851,192.79 231.888,192.278 238.471,192.278C241.454,192.278 255.446,192.278 255.446,203.28C255.446,207.706 253.388,210.481 249.58,212.329C248.761,212.745 247.936,212.948 247.317,213.257C248.039,213.98 248.654,214.599 249.272,215.421C249.79,216.241 250.404,217.271 251.228,219.021L252.46,221.695C255.342,227.556 256.883,228.687 260.072,229.306L260.072,231.261C254.517,231.464 250.094,229.407 246.496,223.855C245.979,223.136 244.849,221.08 243.717,219.021C242.689,217.066 241.558,215.216 241.148,214.496L235.9,214.496L235.899,218.912ZM99.609,198.139L94.362,211.612L104.442,211.612L99.609,198.139ZM91.485,218.912C90.763,220.871 89.837,223.441 89.837,225.494C89.837,227.553 91.691,227.967 93.333,228.273L95.698,228.478L95.698,230.433L80.479,230.433L80.479,228.583C83.664,227.964 84.798,227.243 86.134,224.47L87.368,221.382L88.397,218.812L98.272,194.124L97.345,191.446L104.031,191.446L114.213,218.811L115.963,223.541C116.373,224.57 116.992,226.623 117.919,227.451C118.738,228.168 119.768,228.373 122.239,228.476L122.239,230.431L103.519,230.431L103.519,228.476C106.704,228.372 109.278,228.271 109.278,226.111C109.278,224.877 108.659,223.025 108.044,221.484L107.118,218.81L105.471,214.285L93.231,214.285L91.485,218.912ZM380.314,218.912L380.314,222.93C380.314,227.553 381.546,228.276 387,228.586L387,230.537L367.562,230.537L367.562,228.586C372.19,228.273 372.291,228.172 372.804,227.244C373.731,225.806 373.731,221.18 373.731,219.326L373.731,200.297C373.731,195.67 372.804,195.051 367.251,194.637L367.251,192.688L386.692,192.688L386.692,194.637C380.314,194.848 380.212,195.77 380.212,202.049L380.212,218.912L380.314,218.912ZM338.246,218.912L338.246,223.338C338.246,225.908 338.45,227.039 339.377,227.658C339.891,227.967 340.508,228.172 341.436,228.273C342.363,228.378 343.596,228.478 345.24,228.478L345.24,230.433L324.359,230.433L324.359,228.478C326.213,228.374 327.446,228.273 328.373,228.273C329.3,228.068 330.018,227.964 330.432,227.658C331.255,227.142 331.46,226.012 331.46,223.748L331.46,218.912L331.46,195.152L325.185,195.152C322.716,195.152 321.689,195.357 321.07,195.767C320.557,196.08 320.251,196.49 319.938,197.312C319.63,198.136 319.324,199.371 318.602,201.531L316.748,201.531L317.571,191.554L319.117,191.554C319.732,192.581 320.249,192.685 321.277,192.786L346.991,192.786C349.765,192.786 350.077,192.581 350.487,191.554L352.028,191.554L352.955,201.531L351.004,201.531C349.663,195.256 348.431,195.152 345.24,195.152L338.248,195.152L338.246,218.912ZM188.379,218.912L188.379,224.572C188.379,228.068 188.584,228.068 192.08,228.068L198.663,228.068C202.467,228.068 204.422,227.453 206.071,220.871L208.129,220.871L207.202,230.332L175.52,230.332L175.52,228.377C181.176,228.586 181.59,227.039 181.59,223.647L181.59,218.708L181.59,199.27C181.59,195.051 180.454,194.334 175.52,194.432L175.52,192.688L205.554,192.688L205.967,201.329L204.012,201.329C202.984,195.565 201.648,195.155 197.532,195.155L188.277,195.155L188.277,210.175L197.43,210.175C200.516,210.175 201.335,210.175 201.852,205.542L203.91,205.542L203.91,217.372L201.852,217.372C201.648,212.643 201.029,212.436 196.81,212.436L188.276,212.436L188.276,218.913L188.379,218.913L188.379,218.912ZM159.37,218.912C159.473,219.529 159.575,220.252 159.575,220.871C159.575,226.625 154.947,231.775 147.749,231.775C146.618,231.775 145.896,231.668 144.867,231.564C143.838,231.359 142.502,230.945 140.24,230.332C139.83,230.127 139.518,230.127 139.211,230.127C138.489,230.127 138.284,230.332 138.284,230.945L136.431,230.945L135.299,221.179L137.358,221.179C139.932,228.585 145.282,229.513 147.028,229.513C149.393,229.513 154.128,227.966 154.128,223.027C154.128,221.382 153.611,220.043 152.686,218.814C151.145,216.755 148.366,215.107 144.562,212.744C136.848,208.014 135.409,204.515 135.409,201.123C135.409,195.467 140.549,191.352 145.796,191.352C147.855,191.352 149.707,191.659 151.351,192.278C151.863,192.483 153.614,193.206 153.92,193.206C154.129,193.206 154.438,192.995 154.949,192.376L156.801,192.376L157.729,201.433L155.67,201.433C153.817,196.601 150.837,193.617 146.619,193.617C143.327,193.617 140.856,196.084 140.856,198.863C140.856,200.609 141.373,201.74 142.914,203.183C143.738,203.9 144.869,204.828 146.309,205.747L151.76,209.352C153.51,210.483 155.155,211.614 156.495,213.161C157.828,214.801 158.96,216.648 159.37,218.912ZM23.186,218.912L22.772,223.543C22.668,223.953 22.668,225.191 22.668,226.113C22.668,228.478 25.96,228.478 28.018,228.478L28.018,230.433L13,230.433L13,228.478C19.48,228.169 19.48,227.863 19.998,221.281L20.203,218.812L21.848,198.546C22.052,194.946 21.438,194.946 16.498,194.636L16.498,192.685L29.254,192.685L40.567,218.812L41.391,220.763L42.318,218.812L53.734,192.685L66.286,192.685L66.286,194.636C64.741,194.636 63.814,194.636 62.994,194.741C62.272,194.946 61.76,195.048 61.448,195.356C60.834,195.975 60.731,197.311 60.936,200.192L62.169,218.909L62.374,222.307C62.682,227.243 62.788,228.787 68.445,228.582L68.445,230.533L50.033,230.533L50.033,228.582C51.369,228.477 53.325,228.377 54.558,227.963C55.586,227.549 56.205,226.934 56.205,225.598C56.205,225.08 55.996,223.334 55.996,222.819L55.791,219.016L54.558,198.442L45.506,219.016L40.464,230.641L38.615,230.641L33.676,219.016L24.934,198.442L23.186,218.912Z" style="fill:rgb(0,34,69);fill-rule:nonzero;"/>
    </g>
</svg>
